X: 33031
T: Pride Of Erin, The
R: jig
M: 6/8
K: Eminor
|:E3 GFE|e3 BAG|FED ded|ABG AFD|
E3 GFE|e3 BAG|FED ded|AGF E3:|
|:eBe gfe|dB/c/d fed|eBe g3|afd def|
eBe gfe|dB/c/d AGF|EBE e3|dAF E3||

